svg/emoji_u1f91d_1f3fb.svg

<?xml version="1.0" encoding="UTF-8" standalone="no"?><!DOCTYPE svg PUBLIC "-//W3C//DTD SVG 1.1//EN" "http://www.w3.org/Graphics/SVG/1.1/DTD/svg11.dtd"><svg width="128px" height="128px" version="1.1" xmlns="http://www.w3.org/2000/svg" xmlns:xlink="http://www.w3.org/1999/xlink" xml:space="preserve" xmlns:serif="http://www.serif.com/" style="fill-rule:evenodd;clip-rule:evenodd;stroke-miterlimit:10;"><path id="a" d="M15.6,27.43C23.62,24.97 30.61,32.62 36.39,30.8C44.84,28.13 49.74,27.59 58.78,30.39C67.89,33.22 78.52,41.04 86.25,46.45C93.06,51.22 101.9,58.98 107.78,64.96C111.59,68.84 111.49,71.51 110.74,73.51C109.77,76.09 106.98,77.47 103.55,77.34C103.19,77.33 102.91,77.66 103.04,78C104.25,81.37 103.13,84.26 101.5,85.7C99.08,87.83 96.31,88.28 93.15,87.15C93.102,87.134 93.052,87.125 93.002,87.125C92.751,87.125 92.545,87.332 92.545,87.582C92.545,87.622 92.55,87.662 92.56,87.7C93.24,90.31 92.43,92.87 90.28,94.45C87.98,96.13 85.82,96.07 82.34,94.8C81.98,94.67 81.63,94.93 81.61,95.31C81.53,96.91 80.27,98.14 79.53,98.86C76.28,102.04 70.66,99.87 65.96,97.62C56.73,93.21 44.36,83.92 35.49,78.84C25.08,72.88 0.42,59.73 1.42,48.74C1.87,43.76 8.18,30.2 15.6,27.43Z" style="fill:#fadcbc;fill-rule:nonzero;"/><clipPath id="_clip1"><path d="M15.6,27.43C23.62,24.97 30.61,32.62 36.39,30.8C44.84,28.13 49.74,27.59 58.78,30.39C67.89,33.22 78.52,41.04 86.25,46.45C93.06,51.22 101.9,58.98 107.78,64.96C111.59,68.84 111.49,71.51 110.74,73.51C109.77,76.09 106.98,77.47 103.55,77.34C103.19,77.33 102.91,77.66 103.04,78C104.25,81.37 103.13,84.26 101.5,85.7C99.08,87.83 96.31,88.28 93.15,87.15C93.102,87.134 93.052,87.125 93.002,87.125C92.751,87.125 92.545,87.332 92.545,87.582C92.545,87.622 92.55,87.662 92.56,87.7C93.24,90.31 92.43,92.87 90.28,94.45C87.98,96.13 85.82,96.07 82.34,94.8C81.98,94.67 81.63,94.93 81.61,95.31C81.53,96.91 80.27,98.14 79.53,98.86C76.28,102.04 70.66,99.87 65.96,97.62C56.73,93.21 44.36,83.92 35.49,78.84C25.08,72.88 0.42,59.73 1.42,48.74C1.87,43.76 8.18,30.2 15.6,27.43Z"/></clipPath><g clip-path="url(#_clip1)"><path d="M103.12,60.29C104.74,62.12 105.31,66.03 103.5,68.69C101.54,71.57 98.62,71.38 97.83,72.17C97.03,72.97 97.87,75.82 95,78.38C91.86,81.17 88.58,79.78 87.5,80.63C86.62,81.32 87.66,84.12 83.84,86.81C79.9,89.59 76.43,88.39 75.81,88.94C74.87,89.78 76.09,91.11 72.37,94.38C68.64,97.65 60.43,92.74 58.25,91.94C57.64,91.72 55.94,92.69 56.1,93.32C56.18,93.63 72.19,103.72 77.83,103.84C83.75,103.96 89.84,103.37 95.14,100.71C97.16,99.7 99.02,98.41 100.81,97.04C105.31,93.59 109.48,89.45 111.7,84.23C113.31,80.46 113.81,76.31 114.03,72.21C114.21,68.9 114,65.1 111.42,63.02C109.35,61.35 105.58,60.17 103.12,60.29Z" style="fill:#dba689;fill-rule:nonzero;"/></g><path id="c" d="M106.08,66.74C110.62,63.71 121.61,57.66 124.43,50.09C126.33,44.99 121.06,40.76 118.27,37.4C114.66,33.07 108.04,29.73 102.77,31C99.62,31.76 92.83,34.2 88.53,34.07C83.29,33.9 80.51,33.71 77.06,33.18C74.36,32.77 70.41,33.27 65.46,34.83C60.47,36.4 56.45,38.21 51.43,41.47C49.45,42.76 47.06,44.93 45.76,47.07C43.79,50.31 46.33,55.41 51.23,56.06C57.55,56.9 64.2,50.04 71.33,47.07C73.44,46.19 75.69,44.95 78.5,45.19C81.64,45.47 95.06,56.17 106.08,66.74Z" style="fill:#dba689;fill-rule:nonzero;"/><path id="c1" serif:id="c" d="M104.043,65.828C104.576,66.471 105.32,66.812 106.093,66.973C106.914,67.144 107.759,66.955 108.551,66.556C109.812,65.914 111.301,65.191 112.867,64.307C113.469,63.968 114.075,63.606 114.678,63.212C116.625,61.942 118.558,60.433 120.318,58.821C122.95,56.411 125.117,53.672 126.221,50.757C127.202,48.146 126.75,45.706 125.571,43.448C124.137,40.7 121.508,38.251 119.775,36.151C119.774,36.15 119.773,36.149 119.772,36.148C117.83,33.807 115.094,31.723 112.123,30.373C108.894,28.906 105.394,28.324 102.303,29.062C102.303,29.062 102.303,29.062 102.303,29.062C100.38,29.523 97.099,30.606 93.859,31.349C91.979,31.78 90.115,32.103 88.593,32.055C85.772,31.96 83.675,31.861 81.798,31.704C80.266,31.576 78.884,31.409 77.368,31.175C77.367,31.174 77.366,31.174 77.365,31.174C75.918,30.953 74.15,30.952 72.092,31.215C69.988,31.485 67.561,32.034 64.848,32.888C62.166,33.731 59.754,34.643 57.327,35.795C55.08,36.862 52.819,38.136 50.319,39.759C50.318,39.759 50.317,39.76 50.316,39.761C49.218,40.476 48.004,41.436 46.888,42.516C45.764,43.604 44.742,44.813 44.015,46.009C42.566,48.391 42.787,51.513 44.437,54.029C45.776,56.07 48.039,57.699 50.961,58.087C53.447,58.417 55.988,57.787 58.568,56.596C62.902,54.594 67.398,50.91 72.11,48.942C72.11,48.942 72.11,48.942 72.111,48.942C73.333,48.429 74.601,47.772 76.019,47.411C76.737,47.228 77.499,47.126 78.325,47.194C78.526,47.212 78.789,47.345 79.131,47.507C79.922,47.882 80.904,48.497 82.078,49.238C82.684,49.62 83.336,50.037 84.04,50.469C85.456,51.339 87.071,52.221 88.741,53.338C89.276,53.697 89.812,54.077 90.352,54.476C94.714,57.704 99.492,61.766 104.043,65.828L104.043,65.828ZM105.062,64.748C105.061,64.748 105.061,64.748 105.061,64.747C100.519,60.236 95.554,55.911 91.377,52.149C89.119,50.116 87.202,48.159 85.38,46.742C83.812,45.523 82.374,44.669 81.271,44.088C80.177,43.512 79.281,43.242 78.679,43.187C78.676,43.186 78.674,43.186 78.671,43.186C77.37,43.072 76.165,43.214 75.031,43.498C73.41,43.903 71.949,44.618 70.55,45.198C65.789,47.176 61.236,50.871 56.857,52.886C55.033,53.726 53.257,54.267 51.499,54.033C51.499,54.033 51.499,54.033 51.499,54.033C49.871,53.817 48.601,52.924 47.855,51.787C47.1,50.637 46.843,49.221 47.505,48.131C47.505,48.131 47.505,48.13 47.505,48.13C48.065,47.209 48.862,46.287 49.727,45.449C50.644,44.561 51.64,43.769 52.543,43.18C54.874,41.666 56.981,40.474 59.077,39.477C61.333,38.405 63.577,37.558 66.071,36.773C66.072,36.773 66.072,36.773 66.072,36.772C68.522,36 70.713,35.497 72.613,35.251C74.229,35.041 75.618,35.015 76.755,35.186C78.365,35.431 79.836,35.605 81.466,35.738C83.399,35.895 85.559,35.994 88.465,36.085C88.466,36.085 88.468,36.085 88.469,36.085C89.884,36.126 91.544,35.926 93.268,35.586C96.975,34.855 101.009,33.479 103.237,32.938C105.523,32.382 108.101,32.9 110.495,33.976C112.926,35.067 115.173,36.749 116.768,38.652C118.361,40.56 120.831,42.74 122.157,45.243C122.84,46.534 123.193,47.922 122.639,49.423C122.639,49.423 122.639,49.423 122.639,49.423C121.753,51.841 119.911,54.064 117.775,56.098C116.166,57.63 114.345,58.997 112.642,60.331C110.643,61.897 108.811,63.393 107.26,64.573C107.253,64.578 107.247,64.582 107.24,64.587C106.945,64.839 106.622,65.04 106.256,65.053C105.841,65.068 105.415,65.008 105.062,64.748Z" style="fill:#dba689;"/><g><path d="M67.19,85.74C67.19,85.74 67.15,90.48 66.51,92.08C65.87,93.68 65.43,95.63 64.36,96.83L66.07,97.68C68.85,93.81 69.47,92.5 69.47,89.9C69.46,87.05 67.19,85.74 67.19,85.74ZM33.04,68.82C33.04,68.82 34.67,71.47 34.03,73.07C33.39,74.67 33.05,76.3 31.98,77.5C31.98,77.5 32.37,77.08 32.88,77.37C33.37,77.65 33.06,78.23 33.06,78.23L34.6,76.49C35.51,75.34 35.57,73.53 35.15,71.94C34.61,69.88 33.04,68.82 33.04,68.82ZM44.82,73.09C44.82,73.09 45.19,77.93 44.56,79.53C43.92,81.13 43.58,82.76 42.51,83.96C42.51,83.96 43.13,83.64 43.63,83.92C44.12,84.2 43.85,84.98 43.85,84.98L46.07,82.38C46.98,81.23 47.34,79.1 47.17,77.21C46.93,74.55 44.82,73.09 44.82,73.09ZM58.31,77.89C58.31,77.89 56.16,85.13 55.52,86.73C54.88,88.33 54.58,90 53.51,91.2C53.51,91.2 54.11,90.82 54.61,91.1C55.1,91.38 54.82,92.18 54.82,92.18L57.52,89.04C58.43,87.89 60.35,84.9 60.34,81.88C60.32,79.03 58.31,77.89 58.31,77.89Z" style="fill:#dba689;fill-rule:nonzero;"/></g><g><path id="d" d="M67.41,95.35C63.88,99.03 60.42,101.46 57.22,98.38C54.07,95.36 56.3,91.76 59.83,88.07C63.36,84.38 67.5,81.96 70.35,84.7C73.25,87.49 70.94,91.67 67.41,95.35Z" style="fill:#dba689;fill-rule:nonzero;"/><path id="d1" serif:id="d" d="M67.41,95.35C63.88,99.03 60.42,101.46 57.22,98.38C54.07,95.36 56.3,91.76 59.83,88.07C63.36,84.38 67.5,81.96 70.35,84.7C73.25,87.49 70.94,91.67 67.41,95.35Z" style="fill:#dba689;fill-rule:nonzero;stroke:#dba689;stroke-width:2px;"/><path id="e" d="M56.73,89.2C51.6,95.07 48.07,96.92 44.53,93.53C41.05,90.19 44.11,85.94 48.35,81.16C53.73,75.11 57.81,73.39 60.96,76.4C64.17,79.49 62.19,82.95 56.73,89.2Z" style="fill:#dba689;fill-rule:nonzero;"/><path id="e1" serif:id="e" d="M56.73,89.2C51.6,95.07 48.07,96.92 44.53,93.53C41.05,90.19 44.11,85.94 48.35,81.16C53.73,75.11 57.81,73.39 60.96,76.4C64.17,79.49 62.19,82.95 56.73,89.2Z" style="fill:#dba689;fill-rule:nonzero;stroke:#dba689;stroke-width:2px;"/><g><path id="f" d="M44.2,83.32C40.32,87.34 36.58,90.03 33.21,86.79C29.9,83.62 32.52,79.85 36.23,75.67C40.29,71.08 44.58,68.95 47.58,71.82C50.63,74.75 48.92,78.43 44.2,83.32Z" style="fill:#dba689;fill-rule:nonzero;stroke:#dba689;stroke-width:1px;stroke-linejoin:round;stroke-miterlimit:2;"/><path id="f1" serif:id="f" d="M44.2,83.32C40.32,87.34 36.58,90.03 33.21,86.79C29.9,83.62 32.52,79.85 36.23,75.67C40.29,71.08 44.58,68.95 47.58,71.82C50.63,74.75 48.92,78.43 44.2,83.32Z" style="fill:#dba689;fill-rule:nonzero;stroke:#dba689;stroke-width:2px;"/></g><g><path id="g" d="M33.25,77.06C30.15,80.29 27.04,82.33 23.76,79.18C20.54,76.09 22.39,72.84 25.49,69.61C28.59,66.38 32.35,64.39 35.27,67.19C38.24,70.04 36.35,73.83 33.25,77.06Z" style="fill:#dba689;fill-rule:nonzero;stroke:#dba689;stroke-width:1px;stroke-linejoin:round;stroke-miterlimit:2;"/><path id="g1" serif:id="g" d="M33.25,77.06C30.15,80.29 27.04,82.33 23.76,79.18C20.54,76.09 22.39,72.84 25.49,69.61C28.59,66.38 32.35,64.39 35.27,67.19C38.24,70.04 36.35,73.83 33.25,77.06Z" style="fill:#dba689;fill-rule:nonzero;stroke:#dba689;stroke-width:2px;"/></g></g><g><path id="h" d="M107.21,64.41C111.9,61.28 123.28,55.02 126.19,47.18C128.15,41.91 122.71,37.53 119.82,34.05C116.09,29.57 109.24,26.11 103.78,27.42C100.52,28.2 93.5,30.73 89.04,30.59C83.61,30.42 80.75,30.22 77.18,29.67C74.38,29.24 70.3,29.76 65.18,31.37C60.02,32.99 55.86,34.86 50.67,38.24C48.63,39.57 46.15,41.82 44.81,44.04C42.78,47.4 45.4,52.67 50.47,53.34C57.01,54.21 63.89,47.11 71.26,44.04C73.44,43.13 75.77,41.85 78.67,42.1C81.93,42.41 95.81,53.47 107.21,64.41Z" style="fill:#fadcbc;fill-rule:nonzero;"/></g><g><path id="i" d="M64.65,96.52C61.17,100.14 57.78,102.53 54.63,99.5C51.54,96.53 53.72,92.99 57.2,89.36C60.68,85.74 64.74,83.35 67.54,86.04C70.4,88.79 68.13,92.9 64.65,96.52Z" style="fill:#fadcbc;fill-rule:nonzero;"/><path id="j" d="M54.15,90.47C49.1,96.24 45.63,98.07 42.15,94.73C38.73,91.45 41.73,87.26 45.91,82.57C51.2,76.62 55.22,74.92 58.31,77.89C61.46,80.92 59.52,84.33 54.15,90.47Z" style="fill:#fadcbc;fill-rule:nonzero;"/><g><path id="k" d="M41.82,84.68C38,88.63 34.32,91.27 31.01,88.1C27.76,84.98 30.33,81.27 33.98,77.16C37.98,72.65 42.19,70.55 45.14,73.38C48.15,76.26 46.47,79.88 41.82,84.68Z" style="fill:#fadcbc;fill-rule:nonzero;"/></g><g><path id="l" d="M31.06,78.53C28.01,81.71 24.95,83.71 21.72,80.62C18.55,77.58 20.37,74.38 23.42,71.21C26.47,68.03 30.17,66.08 33.04,68.83C35.97,71.63 34.11,75.35 31.06,78.53Z" style="fill:#fadcbc;fill-rule:nonzero;"/></g></g></svg>

<?xml version='1.0' encoding='utf-8'?>
<svg xmlns="http://www.w3.org/2000/svg" xmlns:ns1="http://www.w3.org/1999/xlink" width="128" height="128" viewBox="0 0 128 128"><defs><path id="a" d="M15.6 27.43c8.02-2.46 15.01 5.19 20.79 3.37 8.45-2.67 13.35-3.21 22.39-.41 9.11 2.83 19.74 10.65 27.47 16.06 6.81 4.77 15.65 12.53 21.53 18.51 3.81 3.88 3.71 6.55 2.96 8.55-.97 2.58-3.76 3.96-7.19 3.83-.36-.01-.64.32-.51.66 1.21 3.37.09 6.26-1.54 7.7-2.42 2.13-5.19 2.58-8.35 1.45a.457.457 0 0 0-.59.55c.68 2.61-.13 5.17-2.28 6.75-2.3 1.68-4.46 1.62-7.94.35-.36-.13-.71.13-.73.51-.08 1.6-1.34 2.83-2.08 3.55-3.25 3.18-8.87 1.01-13.57-1.24-9.23-4.41-21.6-13.7-30.47-18.78C25.08 72.88.42 59.73 1.42 48.74c.45-4.98 6.76-18.54 14.18-21.31z" /></defs><use ns1:href="#a" overflow="visible" fill="#fadcbc" /><clipPath id="b"><use ns1:href="#a" overflow="visible" /></clipPath><g clip-path="url(#b)"><path d="M103.12 60.29c1.62 1.83 2.19 5.74.38 8.4-1.96 2.88-4.88 2.69-5.67 3.48-.8.8.04 3.65-2.83 6.21-3.14 2.79-6.42 1.4-7.5 2.25-.88.69.16 3.49-3.66 6.18-3.94 2.78-7.41 1.58-8.03 2.13-.94.84.28 2.17-3.44 5.44-3.73 3.27-11.94-1.64-14.12-2.44-.61-.22-2.31.75-2.15 1.38.08.31 16.09 10.4 21.73 10.52 5.92.12 12.01-.47 17.31-3.13 2.02-1.01 3.88-2.3 5.67-3.67 4.5-3.45 8.67-7.59 10.89-12.81 1.61-3.77 2.11-7.92 2.33-12.02.18-3.31-.03-7.11-2.61-9.19-2.07-1.67-5.84-2.85-8.3-2.73z" fill="#dba689" /></g><defs><path id="c" d="M106.08 66.74c4.54-3.03 15.53-9.08 18.35-16.65 1.9-5.1-3.37-9.33-6.16-12.69-3.61-4.33-10.23-7.67-15.5-6.4-3.15.76-9.94 3.2-14.24 3.07-5.24-.17-8.02-.36-11.47-.89-2.7-.41-6.65.09-11.6 1.65-4.99 1.57-9.01 3.38-14.03 6.64-1.98 1.29-4.37 3.46-5.67 5.6-1.97 3.24.57 8.34 5.47 8.99 6.32.84 12.97-6.02 20.1-8.99 2.11-.88 4.36-2.12 7.17-1.88 3.14.28 16.56 10.98 27.58 21.55z" /></defs><defs><path id="d" d="M105.86 69.29l-1.16-1.11c-12.68-12.15-24.29-20.68-26.4-21-.17-.01-.35-.02-.53-.02-1.65 0-3.13.65-4.69 1.33-.33.15-.66.29-.99.42-2.4 1-4.84 2.53-7.2 4.01-4.26 2.67-8.29 5.2-12.58 5.2-.46 0-.91-.03-1.35-.09-3.11-.41-5.75-2.31-7.07-5.06-1.12-2.34-1.07-4.94.15-6.95 1.59-2.62 4.38-5 6.29-6.24 4.89-3.18 9.1-5.17 14.52-6.88 5.12-1.61 9.4-2.19 12.51-1.71 3.21.49 5.83.7 11.23.87h.29c2.91 0 7.2-1.25 10.34-2.16 1.2-.35 2.24-.65 3.08-.85.9-.22 1.86-.33 2.85-.33 5.08 0 10.98 2.97 14.66 7.4.46.56 1 1.14 1.56 1.75 2.93 3.19 6.94 7.55 4.94 12.92-2.66 7.16-11.61 12.84-16.95 16.23-.82.52-1.55.98-2.16 1.39l-1.34.88zM77.77 43.16c.29 0 .59.01.89.04 4.55.4 19.86 13.65 27.66 21 .28-.18.58-.37.89-.57 4.92-3.12 13.15-8.34 15.34-14.24 1.06-2.85-1.05-5.45-4.14-8.82-.6-.66-1.18-1.29-1.68-1.89-2.92-3.51-7.68-5.96-11.58-5.96-.67 0-1.32.07-1.92.22-.75.18-1.75.47-2.9.81-3.5 1.02-8.37 2.44-11.88 2.31-5.58-.18-8.32-.39-11.71-.91-2.44-.37-6.26.18-10.7 1.58-5.12 1.61-8.91 3.4-13.54 6.41-1.68 1.09-3.89 3.05-5.05 4.96-.52.85-.5 2.03.04 3.15.73 1.53 2.22 2.59 3.99 2.82.27.04.54.05.82.05 3.14 0 6.69-2.23 10.45-4.59 2.5-1.57 5.08-3.19 7.79-4.31.3-.13.61-.26.92-.4 1.8-.77 3.82-1.66 6.31-1.66z" /></defs><use ns1:href="#c" overflow="visible" fill="#dba689" /><use ns1:href="#d" overflow="visible" fill="#dba689" /><clipPath id="e"><use ns1:href="#c" overflow="visible" /></clipPath><g fill="#dba689"><path d="M67.19 85.74s-.04 4.74-.68 6.34c-.64 1.6-1.08 3.55-2.15 4.75l1.71.85c2.78-3.87 3.4-5.18 3.4-7.78-.01-2.85-2.28-4.16-2.28-4.16zM33.04 68.82s1.63 2.65.99 4.25c-.64 1.6-.98 3.23-2.05 4.43 0 0 .39-.42.9-.13.49.28.18.86.18.86l1.54-1.74c.91-1.15.97-2.96.55-4.55-.54-2.06-2.11-3.12-2.11-3.12zM44.82 73.09s.37 4.84-.26 6.44c-.64 1.6-.98 3.23-2.05 4.43 0 0 .62-.32 1.12-.04.49.28.22 1.06.22 1.06l2.22-2.6c.91-1.15 1.27-3.28 1.1-5.17-.24-2.66-2.35-4.12-2.35-4.12zM58.31 77.89s-2.15 7.24-2.79 8.84c-.64 1.6-.94 3.27-2.01 4.47 0 0 .6-.38 1.1-.1.49.28.21 1.08.21 1.08l2.7-3.14c.91-1.15 2.83-4.14 2.82-7.16-.02-2.85-2.03-3.99-2.03-3.99z" /></g><g><defs><path id="f" d="M67.41 95.35c-3.53 3.68-6.99 6.11-10.19 3.03-3.15-3.02-.92-6.62 2.61-10.31s7.67-6.11 10.52-3.37c2.9 2.79.59 6.97-2.94 10.65z" /></defs><defs><path id="g" d="M60.35 100.78c-1.38 0-2.66-.57-3.82-1.68-1.75-1.68-2.24-3.68-1.45-5.95.58-1.67 1.86-3.5 4.03-5.77 2.12-2.21 5.31-4.85 8.39-4.85 1.34 0 2.53.49 3.54 1.45 1.63 1.56 2.04 3.65 1.2 6.04-.65 1.83-2.03 3.86-4.1 6.02-2.26 2.35-4.94 4.74-7.79 4.74zm7.15-16.25c-1.86 0-4.33 1.51-6.95 4.24-1.96 2.05-3.1 3.65-3.59 5.04-.53 1.53-.24 2.72.95 3.85.79.75 1.58 1.12 2.44 1.12 2.11 0 4.49-2.21 6.33-4.13 1.85-1.93 3.12-3.76 3.66-5.3.59-1.66.37-2.91-.7-3.93-.61-.6-1.32-.89-2.14-.89z" /></defs><use ns1:href="#f" overflow="visible" fill="#dba689" /><use ns1:href="#g" overflow="visible" fill="#dba689" /><clipPath id="h"><use ns1:href="#f" overflow="visible" /></clipPath><g><defs><path id="i" d="M56.73 89.2c-5.13 5.87-8.66 7.72-12.2 4.33-3.48-3.34-.42-7.59 3.82-12.37 5.38-6.05 9.46-7.77 12.61-4.76 3.21 3.09 1.23 6.55-4.23 12.8z" /></defs><defs><path id="j" d="M48.16 96.22c-1.53 0-2.94-.64-4.32-1.97-4.57-4.38.45-10.02 3.77-13.75 3.97-4.47 7.15-6.55 10-6.55 1.49 0 2.85.58 4.04 1.73 4.14 3.97.73 8.57-4.17 14.17-3.9 4.47-6.69 6.37-9.32 6.37zm9.45-20.26c-2.18 0-5.04 1.98-8.51 5.87-4.47 5.02-6.53 8.43-3.88 10.98.99.95 1.95 1.41 2.94 1.41 1.97 0 4.38-1.75 7.81-5.68 5.73-6.55 6.69-9.11 4.29-11.41-.82-.79-1.69-1.17-2.65-1.17z" /></defs><use ns1:href="#i" overflow="visible" fill="#dba689" /><use ns1:href="#j" overflow="visible" fill="#dba689" /><clipPath id="k"><use ns1:href="#i" overflow="visible" /></clipPath></g><g><defs><path id="l" d="M44.2 83.32c-3.88 4.02-7.62 6.71-10.99 3.47-3.31-3.17-.69-6.94 3.02-11.12 4.06-4.59 8.35-6.72 11.35-3.85 3.05 2.93 1.34 6.61-3.38 11.5z" /></defs><defs><path id="m" d="M36.45 89.23c-1.42 0-2.74-.58-3.93-1.71-4.39-4.21.21-9.4 2.96-12.51 3.18-3.59 6.28-5.49 8.96-5.49 1.44 0 2.73.53 3.82 1.58 1.19 1.14 1.81 2.46 1.84 3.91.05 2.46-1.55 5.24-5.19 9-2.48 2.58-5.44 5.22-8.46 5.22zm7.99-17.71c-2.06 0-4.71 1.71-7.47 4.81-4.54 5.13-5.32 7.58-3.07 9.74.81.78 1.64 1.16 2.54 1.16 2.29 0 4.96-2.46 7.04-4.6 3.19-3.3 4.66-5.71 4.63-7.57-.02-.91-.42-1.73-1.22-2.5-.73-.71-1.52-1.04-2.45-1.04z" /></defs><use ns1:href="#l" overflow="visible" fill="#dba689" /><use ns1:href="#m" overflow="visible" fill="#dba689" /><clipPath id="n"><use ns1:href="#l" overflow="visible" /></clipPath></g><g><defs><path id="o" d="M33.25 77.06c-3.1 3.23-6.21 5.27-9.49 2.12-3.22-3.09-1.37-6.34 1.73-9.57s6.86-5.22 9.78-2.42c2.97 2.85 1.08 6.64-2.02 9.87z" /></defs><defs><path id="p" d="M27.16 81.75c-1.44 0-2.81-.62-4.09-1.85-4.6-4.42-.03-9.19 1.7-10.99 1.78-1.85 4.5-4.06 7.36-4.06 1.43 0 2.72.54 3.84 1.61 1.64 1.57 2.17 3.58 1.54 5.79-.49 1.72-1.68 3.57-3.52 5.49-1.8 1.87-4.19 4.01-6.83 4.01zm4.96-14.9c-1.68 0-3.78 1.22-5.91 3.45-3.54 3.69-4.03 5.97-1.75 8.16.91.87 1.79 1.29 2.71 1.29 1.47 0 3.13-1.04 5.37-3.38 1.6-1.66 2.65-3.27 3.04-4.66.43-1.5.1-2.74-1-3.8-.75-.71-1.55-1.06-2.46-1.06z" /></defs><use ns1:href="#o" overflow="visible" fill="#dba689" /><use ns1:href="#p" overflow="visible" fill="#dba689" /><clipPath id="q"><use ns1:href="#o" overflow="visible" /></clipPath></g></g><g><defs><path id="r" d="M107.21 64.41c4.69-3.13 16.07-9.39 18.98-17.23 1.96-5.27-3.48-9.65-6.37-13.13-3.73-4.48-10.58-7.94-16.04-6.63-3.26.78-10.28 3.31-14.74 3.17-5.43-.17-8.29-.37-11.86-.92-2.8-.43-6.88.09-12 1.7-5.16 1.62-9.32 3.49-14.51 6.87-2.04 1.33-4.52 3.58-5.86 5.8-2.03 3.36.59 8.63 5.66 9.3 6.54.87 13.42-6.23 20.79-9.3 2.18-.91 4.51-2.19 7.41-1.94 3.26.31 17.14 11.37 28.54 22.31z" /></defs><use ns1:href="#r" overflow="visible" fill="#fadcbc" /></g><g><defs><path id="s" d="M64.65 96.52c-3.48 3.62-6.87 6.01-10.02 2.98-3.09-2.97-.91-6.51 2.57-10.14 3.48-3.62 7.54-6.01 10.34-3.32 2.86 2.75.59 6.86-2.89 10.48z" /></defs><use ns1:href="#s" overflow="visible" fill="#fadcbc" /><defs><path id="t" d="M54.15 90.47c-5.05 5.77-8.52 7.6-12 4.26-3.42-3.28-.42-7.47 3.76-12.16 5.29-5.95 9.31-7.65 12.4-4.68 3.15 3.03 1.21 6.44-4.16 12.58z" /></defs><use ns1:href="#t" overflow="visible" fill="#fadcbc" /><g><defs><path id="u" d="M41.82 84.68c-3.82 3.95-7.5 6.59-10.81 3.42-3.25-3.12-.68-6.83 2.97-10.94 4-4.51 8.21-6.61 11.16-3.78 3.01 2.88 1.33 6.5-3.32 11.3z" /></defs><use ns1:href="#u" overflow="visible" fill="#fadcbc" /></g><g><defs><path id="v" d="M31.06 78.53c-3.05 3.18-6.11 5.18-9.34 2.09-3.17-3.04-1.35-6.24 1.7-9.41 3.05-3.18 6.75-5.13 9.62-2.38 2.93 2.8 1.07 6.52-1.98 9.7z" /></defs><use ns1:href="#v" overflow="visible" fill="#fadcbc" /></g></g></svg>
